src/images/services/rent-a-trawl.svg

<svg width="96" height="96" viewBox="0 0 96 96" fill="none" xmlns="http://www.w3.org/2000/svg">
<path fill-rule="evenodd" clip-rule="evenodd" d="M0 31H88.25V48.5H0V50.5H88.25H89.25H90.25H93.5V55.25H0V57.25H16.625V66.5C16.625 69.2614 18.8636 71.5 21.625 71.5H29.0024C29.1356 78.5643 34.9038 84.25 42 84.25C49.0962 84.25 54.8644 78.5643 54.9976 71.5H57.5024C57.6356 78.5643 63.4038 84.25 70.5 84.25C77.5962 84.25 83.3644 78.5643 83.4976 71.5H88.25V72.25C88.25 73.9069 89.5931 75.25 91.25 75.25H92.5C94.1569 75.25 95.5 73.9069 95.5 72.25V57.25V57V56.25V56V50.5V49.5V48.5V35C95.5 31.9403 93.2097 29.4155 90.25 29.0464V29H89.5H89.25H88.25H0V31ZM88.25 57.25V69.5H83.3832C82.5285 63.1479 77.0862 58.25 70.5 58.25C63.9138 58.25 58.4715 63.1479 57.6168 69.5H54.8832C54.0285 63.1479 48.5862 58.25 42 58.25C35.4138 58.25 29.9715 63.1479 29.1168 69.5H21.625C19.9681 69.5 18.625 68.1569 18.625 66.5V57.25H88.25ZM90.25 70.5V58H93.5V72.25C93.5 72.8023 93.0523 73.25 92.5 73.25H91.25C90.6977 73.25 90.25 72.8023 90.25 72.25V71.5V70.5ZM90.25 31.0702V48.5H93.5V35C93.5 33.0472 92.1006 31.4213 90.25 31.0702ZM42 60.25C35.9249 60.25 31 65.1749 31 71.25C31 77.3251 35.9249 82.25 42 82.25C48.0751 82.25 53 77.3251 53 71.25C53 65.1749 48.0751 60.25 42 60.25ZM38.5 71.25C38.5 69.317 40.067 67.75 42 67.75C43.933 67.75 45.5 69.317 45.5 71.25C45.5 73.183 43.933 74.75 42 74.75C40.067 74.75 38.5 73.183 38.5 71.25ZM42 65.75C38.9624 65.75 36.5 68.2124 36.5 71.25C36.5 74.2876 38.9624 76.75 42 76.75C45.0376 76.75 47.5 74.2876 47.5 71.25C47.5 68.2124 45.0376 65.75 42 65.75ZM67 71.25C67 69.317 68.567 67.75 70.5 67.75C72.433 67.75 74 69.317 74 71.25C74 73.183 72.433 74.75 70.5 74.75C68.567 74.75 67 73.183 67 71.25ZM70.5 65.75C67.4624 65.75 65 68.2124 65 71.25C65 74.2876 67.4624 76.75 70.5 76.75C73.5376 76.75 76 74.2876 76 71.25C76 68.2124 73.5376 65.75 70.5 65.75ZM59.5 71.25C59.5 65.1749 64.4249 60.25 70.5 60.25C76.5751 60.25 81.5 65.1749 81.5 71.25C81.5 77.3251 76.5751 82.25 70.5 82.25C64.4249 82.25 59.5 77.3251 59.5 71.25ZM43.6796 41.1377H45.3612L47.2684 45H49.0253V44.9111L46.8993 40.748C47.1727 40.625 47.4211 40.4792 47.6444 40.3105C47.8677 40.1419 48.0591 39.946 48.2186 39.7227C48.3781 39.4993 48.5012 39.2487 48.5878 38.9707C48.6789 38.6927 48.7245 38.3828 48.7245 38.041C48.7245 37.5443 48.6379 37.1113 48.4647 36.7422C48.2915 36.3685 48.05 36.0563 47.7401 35.8057C47.4257 35.5596 47.052 35.3727 46.619 35.2451C46.1861 35.1175 45.7121 35.0514 45.1971 35.0469H42.0389V45H43.6796V41.1377ZM45.2177 39.7979H43.6796V36.3867H45.1971C45.4797 36.3913 45.7349 36.43 45.9628 36.5029C46.1906 36.5713 46.3843 36.6738 46.5438 36.8105C46.717 36.9564 46.8469 37.1387 46.9335 37.3574C47.0246 37.5716 47.0702 37.8223 47.0702 38.1094C47.0702 38.3646 47.0292 38.5924 46.9471 38.793C46.8651 38.9935 46.7512 39.1621 46.6053 39.2988C46.4413 39.4583 46.2408 39.5814 46.0038 39.668C45.7714 39.75 45.5093 39.7933 45.2177 39.7979ZM52.163 40.5361H56.2782V39.21H52.163V36.4072H56.9344V35.0469H50.5155V45H56.9686V43.6465H52.163V40.5361ZM63.6132 45H65.2606V35.0469H63.6063L63.5927 41.8691L60.3798 35.0469H58.7118V45H60.3729L60.3798 38.1504L63.6132 45ZM71.2352 36.4072H74.3046V35.0469H66.5526V36.4072H69.6014V45H71.2352V36.4072Z" fill="#00CC66"/>
</svg>

<svg xmlns="http://www.w3.org/2000/svg" width="96" height="96" fill="none"><path fill="#0C6" fill-rule="evenodd" d="M0 31h88.25v17.5H0v2h93.5v4.75H0v2h16.625v9.25a5 5 0 0 0 5 5h7.377c.134 7.064 5.902 12.75 12.998 12.75 7.096 0 12.864-5.686 12.998-12.75h2.504c.134 7.064 5.902 12.75 12.998 12.75 7.096 0 12.864-5.686 12.998-12.75h4.752v.75a3 3 0 0 0 3 3h1.25a3 3 0 0 0 3-3V35c0-3.06-2.29-5.584-5.25-5.954V29H0v2Zm88.25 26.25V69.5h-4.867c-.855-6.352-6.297-11.25-12.883-11.25-6.586 0-12.029 4.898-12.883 11.25h-2.734C54.028 63.148 48.586 58.25 42 58.25c-6.586 0-12.029 4.898-12.883 11.25h-7.492a3 3 0 0 1-3-3v-9.25H88.25Zm2 13.25V58h3.25v14.25a1 1 0 0 1-1 1h-1.25a1 1 0 0 1-1-1V70.5Zm0-39.43V48.5h3.25V35c0-1.953-1.4-3.579-3.25-3.93ZM42 60.25c-6.075 0-11 4.925-11 11s4.925 11 11 11 11-4.925 11-11-4.925-11-11-11Zm-3.5 11a3.5 3.5 0 1 1 7 0 3.5 3.5 0 0 1-7 0Zm3.5-5.5a5.5 5.5 0 1 0 0 11 5.5 5.5 0 0 0 0-11Zm25 5.5a3.5 3.5 0 1 1 7 0 3.5 3.5 0 0 1-7 0Zm3.5-5.5a5.5 5.5 0 1 0 0 11 5.5 5.5 0 0 0 0-11Zm-11 5.5c0-6.075 4.925-11 11-11s11 4.925 11 11-4.925 11-11 11-11-4.925-11-11ZM43.68 41.138h1.681L47.268 45h1.757v-.089L46.9 40.748c.274-.123.522-.269.745-.438a2.63 2.63 0 0 0 .943-1.34c.092-.277.137-.587.137-.929 0-.497-.086-.93-.26-1.299a2.582 2.582 0 0 0-.724-.936 3.32 3.32 0 0 0-1.121-.56 5.175 5.175 0 0 0-1.422-.2H42.04V45h1.64v-3.862Zm1.538-1.34H43.68v-3.411h1.517c.283.004.538.043.766.116.228.068.421.17.58.307.174.146.304.329.39.547.092.215.137.465.137.752 0 .256-.04.483-.123.684-.082.2-.196.37-.342.506-.164.16-.364.282-.601.369a2.472 2.472 0 0 1-.786.13Zm6.945.738h4.115V39.21h-4.115v-2.803h4.771v-1.36h-6.418V45h6.453v-1.353h-4.806v-3.11ZM63.613 45h1.648v-9.953h-1.655l-.013 6.822-3.213-6.822h-1.668V45h1.66l.008-6.85L63.613 45Zm7.622-8.593h3.07v-1.36h-7.752v1.36H69.6V45h1.634v-8.593Z" clip-rule="evenodd"/></svg>
